!!!OTL: Der J&auml;ger und das M&auml;gdelein (2d), S. 33
!!!id: T0103
**kern
*clefG2
*k[b-e-]
*B-:
{4f
=1
4b-
4b-
=2
4b-
4dd
=3
4.b-
8f
=4
4f}
=5
{4f
=6
4g
4g
=7
8b-
8a
8g
8f
=8
4.f
8e-
=9
4d}
=10
{4f
=11
4b-
4b-
=12
8cc
8ee-
8dd
8cc
=13
4dd
4cc
=14
4b-}
==
*-
!!!minrhy: 8
!!!meters: 2/4 ]  ZZ[3
!!!cut: Der J&auml;ger und das M&auml;gdelein (2d), S. 33
!!!reg: Luxemburg
!!!trd: Singendes Volk, Esch-Alzette 1937 posth.
!!!rhy1: X_  X_X_  X_X_  X_.X  X_
!!!rhy2: X_  X_X_  XXXX  X_.X  X_
!!!key: T0103  08 Bb 2/4 ]  ZZ[3
!!!mod: HEPTATONIK IONISCH]  AMBITUS[9b
!!!kad: -5-31
!!!akz: 111-5_-61-5-3_1231_
!!!fot: 'a__b__c__
!!!for: 'a__b__c__
!!!fok: '^__^d_^a_
!! PHRAS[AUFTAKTIG]
!!!fkt: "erz&auml;hlende Lieder"
!!!bem: STRASSEN; gesungen von Frau Witry am 10.1.1933
!! THILL, Mathias:
!! PR[25] 2K[5] 2G[4] 3K[7] 3G[5] 4A[2] 4Ü[0] 5A[4] 6K[0] 6G[0]
!! 7K[2] 7G[0] 8A[0] MEHR[0] SI[29] ABS[56] SR[9] SP[20]
!! ST[13] 2k[9] 2g[23] 3k[11] 3g[0] 4d[2] 4ü[2] 5d[0] 6k[0] 6g[0]
!! 7k[0] 7g[0] 8d[0] mehr[0] si[46] dm[-17] sr[32] sp[14]
!! 1F[81] 2F[13] 3F[0] 4F[0] LF[0] 2P[6] 3P[0] 4P[0] TRI[0] DF[3] AB[62]
!! TF[0] U3K[0] U3[0] U4[0] U4Ü[0] U5[0] U6K[0] U6[0] U7K[0] U7[0]
!! N1[21] N2K[0] N2[14] N3K[0] N3[18] N4[5] N4Ü[4] N5[25] N6K[0] N6[7]
!!!n7k: 0] N7[2] O1[5] O2K[0] O2[0] O3K[0] O3[0] HÖ[0
!!!RNB: symbol: &auml;      = a umlaut  (UTF-8: Å„)
